public/images/country/country-03.svg

<svg width="21" height="21" viewBox="0 0 21 21" fill="none" xmlns="http://www.w3.org/2000/svg">
<g clip-path="url(#clip0_1589_35166)">
<path d="M10.875 20.5C16.3978 20.5 20.875 16.0228 20.875 10.5C20.875 4.97715 16.3978 0.5 10.875 0.5C5.35215 0.5 0.875 4.97715 0.875 10.5C0.875 16.0228 5.35215 20.5 10.875 20.5Z" fill="#F0F0F0"/>
<path d="M0.875 10.5C0.875 4.97719 5.35219 0.5 10.875 0.5C16.3978 0.5 20.875 4.97719 20.875 10.5" fill="#D80027"/>
<path d="M6.96163 5.71751C6.96163 4.26056 7.98558 3.04345 9.35292 2.74481C9.14276 2.69896 8.92475 2.67407 8.70073 2.67407C7.01983 2.67407 5.65726 4.03665 5.65726 5.71755C5.65726 7.39845 7.01983 8.76103 8.70073 8.76103C8.92468 8.76103 9.14272 8.73614 9.35292 8.69025C7.98558 8.39161 6.96163 7.1745 6.96163 5.71751Z" fill="#F0F0F0"/>
<path d="M10.8747 2.89172L11.0905 3.55598H11.789L11.2239 3.96657L11.4398 4.63083L10.8747 4.22032L10.3096 4.63083L10.5255 3.96657L9.96039 3.55598H10.6588L10.8747 2.89172Z" fill="#F0F0F0"/>
<path d="M9.18043 4.19556L9.39625 4.85985H10.0947L9.52964 5.2704L9.7455 5.93466L9.18043 5.52415L8.61527 5.93466L8.83117 5.2704L8.26605 4.85985H8.96453L9.18043 4.19556Z" fill="#F0F0F0"/>
<path d="M12.5691 4.19556L12.785 4.85985H13.4835L12.9184 5.2704L13.1343 5.93466L12.5691 5.52415L12.0041 5.93466L12.2199 5.2704L11.6548 4.85985H12.3533L12.5691 4.19556Z" fill="#F0F0F0"/>
<path d="M11.9171 6.15283L12.133 6.81713H12.8314L12.2663 7.22768L12.4822 7.89193L11.9171 7.48143L11.352 7.89193L11.5679 7.22768L11.0028 6.81713H11.7012L11.9171 6.15283Z" fill="#F0F0F0"/>
<path d="M9.83243 6.15283L10.0482 6.81713H10.7468L10.1816 7.22768L10.3975 7.89193L9.83243 7.48143L9.26731 7.89193L9.48317 7.22768L8.91809 6.81713H9.61657L9.83243 6.15283Z" fill="#F0F0F0"/>
</g>
<defs>
<clipPath id="clip0_1589_35166">
<rect x="0.875" y="0.5" width="20" height="20" rx="10" fill="white"/>
</clipPath>
</defs>
</svg>

<svg xmlns="http://www.w3.org/2000/svg" width="21" height="21" fill="none" viewBox="0 0 21 21"><g clip-path="url(#a)"><path fill="#f0f0f0" d="M10.875 20.5c5.523 0 10-4.477 10-10s-4.477-10-10-10-10 4.477-10 10 4.477 10 10 10"/><path fill="#d80027" d="M.875 10.5c0-5.523 4.477-10 10-10s10 4.477 10 10"/><path fill="#f0f0f0" d="M6.962 5.718a3.044 3.044 0 0 1 2.39-2.973 3.043 3.043 0 1 0 0 5.945 3.044 3.044 0 0 1-2.39-2.972M10.875 2.892l.216.664h.698l-.565.41.216.665-.565-.41-.565.41.215-.664-.565-.411h.699z"/><path fill="#f0f0f0" d="m9.18 4.196.216.664h.699l-.565.41.216.665-.566-.41-.565.41.216-.665-.565-.41h.699zM12.57 4.196l.215.664h.698l-.565.41.216.665-.565-.41-.565.41.216-.665-.565-.41h.698zM11.917 6.153l.216.664h.698l-.565.41.216.665-.565-.41-.565.41.216-.664-.565-.41h.698zM9.832 6.153l.216.664h.699l-.565.41.216.665-.566-.41-.565.41.216-.664-.565-.41h.699z"/></g><defs><clipPath id="a"><rect width="20" height="20" x=".875" y=".5" fill="#fff" rx="10"/></clipPath></defs></svg>
